static/images/mobile/copyright/wikipedia-wordmark-sc.svg

<svg width="120" height="18" viewBox="0 0 120 18" fill="none" xmlns="http://www.w3.org/2000/svg">
<path fill-rule="evenodd" clip-rule="evenodd" d="M15.3609 0.00448947C16.8006 -0.00561184 20.0343 0.00448947 20.0343 0.00448947L20.0919 0.0569797V0.557743C20.0919 0.696064 20.0141 0.764713 19.8607 0.764713C19.1075 0.800052 18.9531 0.874759 18.6774 1.27152C18.527 1.48758 18.2302 1.95301 17.9223 2.47597L15.2792 7.41892L15.2046 7.57454L18.4351 14.1842L18.631 14.2377L23.7193 2.16199C23.896 1.67537 23.8688 1.33008 23.6416 1.12715C23.4134 0.930286 23.2529 0.812168 22.6633 0.787937L22.1858 0.764713C22.1272 0.764713 22.0717 0.743503 22.0182 0.703128C21.9657 0.665775 21.9384 0.616306 21.9384 0.556736V0.0539585L22.0111 0.00247531H27.7597L27.8183 0.0539585V0.556736C27.8183 0.693027 27.7405 0.761692 27.5871 0.761692C26.8339 0.795002 26.2756 0.958561 25.9142 1.25032C25.5517 1.54412 25.2691 1.94796 25.0661 2.47496C25.0661 2.47496 20.3867 13.1847 18.7855 16.7455C18.1726 17.9126 17.5699 17.8056 17.0399 16.7122C16.3762 15.3453 14.998 12.3306 13.9857 10.102C12.903 12.3355 11.4207 15.3624 10.6855 16.7253C9.97072 17.9681 9.38213 17.8056 8.91368 16.7576C8.12892 14.9061 6.94531 12.3793 5.75386 9.83571L5.75362 9.83521C4.4758 7.1073 3.189 4.3602 2.37557 2.4063C2.08481 1.7107 1.86573 1.26445 1.65876 1.08779C1.45078 0.91312 1.01868 0.808124 0.361434 0.772785C0.120141 0.74654 0 0.687976 0 0.593082V0.067081L0.058557 0.0155826C1.12872 0.00952488 6.30793 0.0155826 6.30793 0.0155826L6.36648 0.067081V0.567844C6.36648 0.70615 6.27865 0.772785 6.10601 0.772785L5.45381 0.800037C4.8945 0.823261 4.61484 0.990863 4.61484 1.3008C4.61484 1.44518 4.6734 1.68041 4.80363 1.99541C6.05553 5.04639 10.3796 14.164 10.3796 14.164L10.5381 14.2054L13.3254 8.64582C12.9846 7.89298 12.7673 7.41085 12.7673 7.41085L10.8511 3.64507C10.8511 3.64507 10.4806 2.89193 10.3544 2.64154C10.2927 2.51941 10.2357 2.40575 10.1825 2.29991C9.51037 0.960559 9.46822 0.87656 8.67946 0.771778C8.44119 0.740482 8.31802 0.710193 8.31802 0.592075V0.0640598L8.3897 0.0125614C9.92731 0.0105472 13.3488 0.0105472 13.3488 0.0105472L13.4801 0.0539585V0.579959C13.4801 0.700107 13.3942 0.761692 13.2196 0.761692L12.8602 0.813175C11.9515 0.883838 12.0999 1.25537 12.7037 2.4578L14.542 6.219L16.5755 2.163C16.9157 1.42095 16.846 1.23517 16.7057 1.06354C16.6249 0.967639 16.3544 0.812168 15.7658 0.788944L15.5346 0.763706C15.476 0.763706 15.4215 0.743518 15.368 0.704135C15.3155 0.666782 15.2892 0.61832 15.2892 0.556736V0.0559726L15.3609 0.00448947ZM29.8667 15.636C29.8667 16.2135 30.1292 16.5547 30.9692 16.6335L31.5204 16.687C31.5992 16.687 31.6779 16.7385 31.6779 16.8435V17.3947L31.6517 17.4482C31.6517 17.4482 29.6567 17.3947 28.843 17.3947C28.108 17.3947 26.0606 17.4482 26.0606 17.4482L26.0081 17.3947V16.8435C26.0081 16.7385 26.0868 16.687 26.1918 16.687L26.7168 16.6335C27.583 16.5547 27.8455 16.1347 27.8455 15.636V6.89495C27.8455 6.31949 27.5295 6.15897 26.7168 6.08223L26.1918 6.02771C26.0868 6.02771 26.0081 6.00348 26.0081 5.92272V5.31798L26.0343 5.26548C26.0343 5.26548 28.108 5.31798 28.9218 5.31798C29.6305 5.31798 31.6517 5.26548 31.6517 5.26548L31.6779 5.31798V5.89547C31.6779 5.97422 31.6254 6.02671 31.5204 6.02671L30.9692 6.08022C30.1555 6.15795 29.8667 6.36896 29.8667 6.89495V15.636ZM38.7158 16.6335C37.9546 16.5022 37.6133 16.2135 37.6133 15.636V11.746C38.1908 11.746 38.6108 11.8753 39.0045 12.4013L41.9182 16.0247C42.2857 16.4447 42.312 16.7314 42.312 17.0737V17.3886L42.3382 17.4149C42.3382 17.4149 43.2832 17.3886 43.9394 17.3886C44.6744 17.3886 46.0656 17.4149 46.0656 17.4149L46.1444 17.3886V16.8374C46.1444 16.7587 46.0394 16.7061 45.9606 16.6809L45.8294 16.6557C45.3044 16.5517 44.6744 16.3932 44.3594 16.0267L40.3958 11.2493C40.2645 11.0918 40.1595 10.9616 40.1595 10.8041C40.1595 10.5931 40.317 10.3064 40.7632 9.83185L43.0207 7.23519C43.9638 6.16112 44.6715 6.10668 45.6919 6.02817L45.6981 6.02771C45.8294 6.02771 45.9081 5.97522 45.9081 5.89647V5.29071L45.8294 5.26648C45.8294 5.26648 44.6744 5.31899 43.9919 5.31899C43.2307 5.31899 41.1045 5.26648 41.1045 5.26648L41.0782 5.29071V5.89647C41.0782 5.97522 41.1307 6.00348 41.2357 6.02771C41.7607 6.10848 41.997 6.34272 41.997 6.55371C41.997 7.05548 41.1832 8.02266 40.1333 9.17966C38.9783 10.4154 38.4796 10.8596 37.6133 10.8596V6.89495C37.6133 6.36896 37.9021 6.2367 38.7158 6.08022L39.0045 6.02671C39.1095 6.00046 39.162 5.97422 39.162 5.89547V5.31798L39.1358 5.26548C39.1358 5.26548 37.4831 5.31798 36.7471 5.31798C35.9334 5.31798 33.7809 5.26548 33.7809 5.26548L33.7547 5.31798V5.92272C33.7547 6.00348 33.8334 6.02771 33.9384 6.02771L34.4634 6.08223C35.3034 6.15897 35.5921 6.31949 35.5921 6.89495V15.636C35.5921 16.1347 35.2509 16.5547 34.4634 16.6335L33.9384 16.687C33.8334 16.687 33.7547 16.7385 33.7547 16.8435V17.3947L33.8072 17.4482C33.8072 17.4482 35.9596 17.3947 36.6946 17.3947C37.4821 17.3947 39.1358 17.4482 39.1358 17.4482L39.162 17.3947V16.8435C39.162 16.7385 39.0833 16.7122 39.0045 16.687L38.7158 16.6335ZM51.7648 15.636C51.7648 16.2135 52.0273 16.5547 52.8672 16.6335L53.4185 16.687C53.4972 16.687 53.576 16.7385 53.576 16.8435V17.3947L53.5497 17.4482C53.5497 17.4482 51.5548 17.3947 50.741 17.3947C50.0061 17.3947 47.9586 17.4482 47.9586 17.4482L47.9061 17.3947V16.8435C47.9061 16.7385 47.9849 16.687 48.0899 16.687L48.6148 16.6335C49.4811 16.5547 49.7436 16.1347 49.7436 15.636V6.89495C49.7436 6.31949 49.4286 6.15897 48.6148 6.08223L48.0899 6.02771C47.9849 6.02771 47.9061 6.00348 47.9061 5.92272V5.31798L47.9324 5.26548C47.9324 5.26548 50.0061 5.31798 50.8198 5.31798C51.5285 5.31798 53.5497 5.26548 53.5497 5.26548L53.576 5.31798V5.89547C53.576 5.97422 53.5235 6.02671 53.4185 6.02671L52.8672 6.08022C52.0535 6.15795 51.7648 6.36896 51.7648 6.89495V15.636ZM55.8617 6.02771C57.0954 6.10646 57.4366 6.13271 57.4366 6.94645L57.4397 15.7652C57.4397 16.2639 57.1772 16.5002 56.3635 16.6052L55.8122 16.6839C55.7072 16.7092 55.6547 16.7354 55.6547 16.8404V17.3917L55.681 17.4452C55.681 17.4452 57.6497 17.3917 58.3847 17.3917C59.1984 17.3917 61.2993 17.4452 61.2993 17.4452L61.3236 17.3917V16.8404C61.3236 16.7375 61.2438 16.7092 61.1388 16.6839L60.6128 16.6052C59.7718 16.475 59.4568 16.3417 59.4568 15.7652V12.2498C59.9303 12.4588 60.4553 12.5123 61.1116 12.5123C64.8369 12.5123 65.5982 10.0459 65.5982 8.46991C65.5982 7.10292 64.9157 5.26648 61.1903 5.26648C60.6709 5.26648 60.129 5.2815 59.6248 5.29547L59.6231 5.29552C59.1851 5.30765 58.7756 5.31899 58.4341 5.31899C57.9925 5.31899 57.2858 5.3013 56.6934 5.28644L56.6908 5.2864L56.6887 5.28635L56.6874 5.2863C56.2612 5.27564 55.895 5.26648 55.7304 5.26648L55.6779 5.29273V5.89647C55.6779 5.94997 55.7042 6.02771 55.8617 6.02771ZM61.1641 11.7511C60.6391 11.7511 59.9828 11.7258 59.4578 11.5149L59.4568 6.94745C59.4568 6.26497 59.7718 6.02872 61.0328 6.02872C62.4745 6.02872 63.4982 6.52747 63.4982 8.78492C63.4982 10.8041 62.74 11.7511 61.1641 11.7511ZM70.1191 17.3947C69.3316 17.3947 67.5215 17.4482 67.5215 17.4482L67.4942 17.3947V16.8172C67.4942 16.7657 67.5214 16.687 67.6517 16.687L68.2574 16.6335C69.0722 16.5547 69.3084 16.0297 69.3084 15.5058V6.84346C69.3084 6.2377 68.9934 6.13372 68.2574 6.08223L67.6517 6.02771C67.4942 6.00348 67.4942 5.94999 67.4942 5.92272V5.31798L67.5215 5.26548C67.5215 5.26548 69.5679 5.31798 70.3554 5.31798H74.214C75.0015 5.31798 76.8662 5.26548 76.8662 5.26548L76.9207 5.31798C76.945 6.4467 77.1287 7.47245 77.3145 8.46891L76.6603 8.5739C76.3725 7.60167 75.8738 6.21146 74.1938 6.21146H72.0939C71.5952 6.21146 71.3327 6.39521 71.3327 6.84044V10.6476H73.3003C74.0363 10.6476 74.2191 10.3326 74.3251 9.80762L74.4816 9.25638C74.4816 9.17763 74.5351 9.12413 74.6391 9.12413H75.0833C75.1378 9.12413 75.1378 9.1514 75.1378 9.20288C75.124 9.34917 75.107 9.5058 75.0894 9.6684C75.0377 10.1465 74.9803 10.6762 74.9803 11.1463C74.9803 11.5831 75.027 11.9741 75.0736 12.3651L75.0736 12.3653C75.097 12.5608 75.1203 12.7563 75.1378 12.9576L75.0833 13.0111H74.6391C74.5088 13.0111 74.4533 12.9576 74.4533 12.8788L74.3221 12.3023C74.2171 11.7763 73.9808 11.4876 73.2953 11.4876H71.3286V15.5047C71.3286 16.0015 71.6143 16.5002 72.0899 16.5002H74.5835C75.9223 16.5002 76.6593 15.6602 76.9722 14.2932L77.6265 14.372L77.1005 17.3897L77.048 17.4422C77.048 17.4422 75.4992 17.3897 74.7118 17.3897L70.1191 17.3947ZM80.5947 16.6335L79.9909 16.687C79.8869 16.687 79.8334 16.7657 79.8365 16.8404V17.3917L79.8617 17.4452C79.8617 17.4452 81.8577 17.3917 82.6461 17.3917C82.9583 17.3917 83.2859 17.3996 83.6896 17.4093C84.3381 17.4249 85.1833 17.4452 86.4775 17.4452C89.3892 17.4452 92.6451 16.0822 92.6451 11.4876C92.6451 7.99642 90.4917 5.26648 86.108 5.26648C85.7397 5.26648 84.9046 5.28177 84.1356 5.29586C83.4796 5.30786 82.8718 5.31899 82.6431 5.31899C82.1696 5.31899 79.8587 5.26648 79.8587 5.26648L79.8334 5.31899V5.89647C79.8334 5.97522 79.9142 6.02771 80.0192 6.02771L80.5947 6.08223L80.6542 6.08751C81.4685 6.15934 81.6456 6.17496 81.6456 6.84346V15.5058C81.6456 16.3185 81.3831 16.5547 80.5947 16.6335ZM90.3614 11.9348C90.3614 15.6128 88.732 16.687 85.8455 16.687C83.8496 16.687 83.6668 16.2387 83.6668 15.5058V6.84346C83.6668 6.18521 84.3231 6.02771 85.3468 6.02771C89.7567 6.02771 90.3614 9.20591 90.3614 11.9348ZM98.842 15.636C98.842 16.2135 99.1045 16.5547 99.9445 16.6335L100.496 16.687C100.574 16.687 100.653 16.7385 100.653 16.8435V17.3947L100.627 17.4482C100.627 17.4482 98.632 17.3947 97.8193 17.3947C97.0833 17.3947 95.0369 17.4482 95.0369 17.4482L94.9833 17.3947V16.8435C94.9833 16.7385 95.0621 16.687 95.1671 16.687L95.6931 16.6335C96.5583 16.5547 96.8218 16.1347 96.8218 15.636V6.89495C96.8218 6.31949 96.5058 6.15897 95.6931 6.08223L95.1671 6.02771C95.0621 6.02771 94.9833 6.00348 94.9833 5.92272V5.31798L95.0096 5.26548C95.0096 5.26548 97.0833 5.31798 97.895 5.31798C98.6027 5.31798 100.626 5.26548 100.626 5.26548L100.65 5.31798V5.89547C100.65 5.97422 100.596 6.02671 100.493 6.02671L99.9414 6.08022C99.1267 6.15795 98.839 6.36896 98.839 6.89495L98.842 15.636ZM107.69 16.687L106.929 16.6335C105.958 16.5547 105.616 15.9762 105.879 15.316L107.402 11.5088C107.533 11.1696 107.69 11.0646 108.32 11.0646H113.782L115.383 15.5027C115.647 16.2357 115.277 16.5527 114.281 16.6304L113.546 16.6839C113.411 16.6839 113.359 16.7617 113.359 16.8949V17.3917L113.383 17.4452C113.383 17.4452 115.957 17.3917 116.875 17.3917C117.9 17.3917 119.921 17.4452 119.921 17.4452L120 17.3917V16.8949C120 16.7617 119.869 16.6839 119.737 16.6839L119.449 16.6587C118.399 16.5537 117.873 16.161 117.504 15.1362L112.123 0.909076C111.914 0.384098 111.782 0.120594 111.416 0.120594C111.021 0.120594 110.81 0.384098 110.522 1.06658L104.696 14.7173C103.961 16.3972 103.306 16.6082 102.15 16.687C102.018 16.687 101.939 16.7657 101.939 16.896V17.3947L101.993 17.4482C101.993 17.4482 103.673 17.3947 104.356 17.3947C104.986 17.3947 107.848 17.4482 107.848 17.4482L107.9 17.3947V16.896C107.9 16.7657 107.795 16.687 107.69 16.687ZM110.814 2.95653L113.36 9.9641V9.96512H108.792C108.214 9.96512 108.031 9.88839 108.136 9.62387L110.761 2.95653H110.814Z" fill="black"/>
</svg>

<svg xmlns="http://www.w3.org/2000/svg" width="120" height="18" fill="none"><path fill="#000" fill-rule="evenodd" d="M15.36.004c1.44-.01 4.674 0 4.674 0l.058.053v.5c0 .14-.078.208-.231.208-.753.035-.908.11-1.184.507-.15.216-.447.681-.755 1.204L15.28 7.419l-.074.156 3.23 6.61.196.053 5.088-12.076c.177-.487.15-.832-.077-1.035-.229-.197-.39-.315-.979-.34l-.477-.022a.275.275 0 0 1-.168-.062.174.174 0 0 1-.08-.146V.054l.073-.052h5.749l.058.052v.503c0 .136-.078.205-.23.205-.754.033-1.312.197-1.674.488-.362.294-.645.698-.848 1.225 0 0-4.68 10.71-6.28 14.27-.613 1.168-1.216 1.06-1.746-.033-.664-1.367-2.042-4.381-3.054-6.61-1.083 2.233-2.565 5.26-3.3 6.623-.715 1.243-1.304 1.08-1.772.033-.785-1.852-1.969-4.379-3.16-6.922-1.278-2.729-2.565-5.476-3.378-7.43-.291-.695-.51-1.142-.717-1.318C1.45.913 1.019.808.36.773.121.747 0 .688 0 .593V.067L.059.016c1.07-.006 6.249 0 6.249 0l.058.051v.5c0 .14-.087.206-.26.206L5.454.8c-.56.023-.84.19-.84.5 0 .145.06.38.19.695 1.252 3.051 5.576 12.169 5.576 12.169l.158.041 2.787-5.56-.558-1.234-1.916-3.766s-.37-.753-.497-1.003l-.171-.342C9.51.96 9.467.877 8.678.772 8.441.74 8.318.71 8.318.592V.064L8.39.013C9.927.01 13.349.01 13.349.01l.131.043V.58c0 .12-.086.182-.26.182l-.36.051c-.909.07-.76.442-.156 1.645l1.838 3.761 2.034-4.056c.34-.742.27-.928.13-1.1-.081-.095-.352-.25-.94-.274l-.231-.025a.276.276 0 0 1-.167-.06.172.172 0 0 1-.079-.147V.056l.072-.052Zm14.507 15.632c0 .578.262.919 1.102.998l.551.053c.08 0 .158.051.158.156v.552l-.026.053s-1.995-.053-2.809-.053c-.735 0-2.782.053-2.782.053l-.053-.053v-.552c0-.105.079-.156.184-.156l.525-.053c.866-.08 1.129-.5 1.129-.998V6.895c0-.576-.317-.736-1.13-.813l-.524-.054c-.105 0-.184-.025-.184-.105v-.605l.026-.053s2.074.053 2.888.053c.709 0 2.73-.053 2.73-.053l.026.053v.577c0 .08-.053.132-.158.132l-.55.053c-.814.078-1.103.289-1.103.815v8.741Zm8.849.998c-.761-.132-1.103-.42-1.103-.998v-3.89c.578 0 .998.13 1.392.655l2.913 3.624c.368.42.394.706.394 1.049v.315l.026.026s.945-.026 1.601-.026c.735 0 2.127.026 2.127.026l.078-.026v-.552c0-.078-.105-.13-.183-.156l-.132-.025c-.525-.104-1.155-.263-1.47-.63l-3.963-4.777c-.132-.157-.236-.287-.236-.445 0-.21.157-.498.603-.972l2.258-2.597c.943-1.074 1.65-1.128 2.67-1.207h.007c.131 0 .21-.053.21-.132v-.605l-.079-.025s-1.155.053-1.837.053c-.761 0-2.887-.053-2.887-.053l-.027.025v.605c0 .08.053.107.158.132.525.08.761.315.761.526 0 .501-.814 1.469-1.864 2.626-1.155 1.235-1.653 1.68-2.52 1.68V6.895c0-.526.29-.658 1.103-.815l.288-.053c.105-.027.158-.053.158-.132v-.577l-.026-.053s-1.653.053-2.389.053c-.814 0-2.966-.053-2.966-.053l-.026.053v.605c0 .08.078.105.183.105l.525.054c.84.077 1.13.237 1.13.813v8.741c0 .499-.342.919-1.13.998l-.525.053c-.105 0-.183.051-.183.156v.552l.052.053s2.153-.053 2.888-.053c.787 0 2.44.053 2.44.053l.027-.053v-.552c0-.105-.079-.13-.157-.156l-.29-.053Zm13.049-.998c0 .578.262.919 1.102.998l.552.053c.078 0 .157.051.157.156v.552l-.026.053s-1.995-.053-2.809-.053c-.735 0-2.782.053-2.782.053l-.053-.053v-.552c0-.105.079-.156.184-.156l.525-.053c.866-.08 1.129-.5 1.129-.998V6.895c0-.576-.315-.736-1.13-.813l-.524-.054c-.105 0-.184-.025-.184-.105v-.605l.026-.053s2.074.053 2.888.053c.709 0 2.73-.053 2.73-.053l.026.053v.577c0 .08-.053.132-.157.132l-.552.053c-.813.078-1.102.289-1.102.815v8.741Zm4.097-9.608c1.233.078 1.575.105 1.575.918l.003 8.82c0 .498-.263.734-1.076.84l-.552.078c-.105.025-.157.051-.157.156v.552l.026.053s1.969-.053 2.704-.053c.813 0 2.914.053 2.914.053l.025-.053v-.552c0-.102-.08-.13-.185-.156l-.526-.079c-.841-.13-1.156-.263-1.156-.84V12.25c.473.209.998.262 1.655.262 3.725 0 4.486-2.466 4.486-4.042 0-1.367-.682-3.204-4.408-3.204-.52 0-1.061.016-1.565.03h-.002c-.438.012-.847.023-1.189.023-.441 0-1.148-.018-1.74-.033h-.007c-.426-.01-.792-.02-.957-.02l-.052.027v.603c0 .054.026.132.184.132Zm5.302 5.723c-.525 0-1.181-.025-1.706-.236l-.001-4.568c0-.682.315-.918 1.576-.918 1.441 0 2.465.498 2.465 2.756 0 2.02-.758 2.966-2.334 2.966Zm8.955 5.644c-.787 0-2.597.053-2.597.053l-.028-.053v-.578c0-.051.027-.13.158-.13l.605-.053c.815-.08 1.051-.604 1.051-1.128V6.843c0-.605-.315-.71-1.05-.76l-.606-.055c-.158-.025-.158-.078-.158-.105v-.605l.028-.053s2.046.053 2.833.053h3.859c.787 0 2.652-.053 2.652-.053l.055.053c.024 1.129.208 2.154.393 3.15l-.654.106c-.287-.972-.786-2.363-2.466-2.363h-2.1c-.499 0-.761.184-.761.63v3.807H73.3c.736 0 .92-.315 1.025-.84l.157-.552c0-.078.053-.132.157-.132h.444c.055 0 .055.027.055.079-.014.146-.031.303-.049.465-.051.479-.109 1.008-.109 1.478 0 .437.047.828.094 1.22.023.195.046.39.064.592l-.055.053h-.444c-.13 0-.186-.053-.186-.132l-.13-.577c-.106-.526-.342-.814-1.028-.814H71.33v4.017c0 .496.285.995.76.995h2.495c1.338 0 2.075-.84 2.388-2.207l.654.079-.526 3.018-.052.052s-1.549-.052-2.336-.052l-4.593.005Zm10.476-.761-.604.053a.146.146 0 0 0-.154.153v.552l.025.053s1.996-.053 2.784-.053c.312 0 .64.008 1.044.017a105.1 105.1 0 0 0 2.788.036c2.911 0 6.167-1.363 6.167-5.957 0-3.492-2.153-6.222-6.537-6.222-.368 0-1.203.016-1.972.03-.656.012-1.264.023-1.493.023-.473 0-2.784-.053-2.784-.053l-.026.053v.577c0 .08.081.132.186.132l.576.054.06.006c.814.071.99.087.99.755v8.663c0 .813-.262 1.049-1.05 1.128Zm9.766-4.7c0 3.679-1.629 4.753-4.516 4.753-1.995 0-2.178-.448-2.178-1.181V6.843c0-.658.656-.815 1.68-.815 4.41 0 5.014 3.178 5.014 5.907Zm8.481 3.702c0 .578.263.919 1.103.998l.551.053c.078 0 .157.051.157.156v.552l-.026.053s-1.995-.053-2.808-.053c-.736 0-2.782.053-2.782.053l-.054-.053v-.552c0-.105.08-.156.184-.156l.526-.053c.865-.08 1.129-.5 1.129-.998V6.895c0-.576-.316-.736-1.129-.813l-.526-.054c-.105 0-.184-.025-.184-.105v-.605l.027-.053s2.073.053 2.885.053c.708 0 2.731-.053 2.731-.053l.024.053v.577c0 .08-.054.132-.157.132l-.552.053c-.814.078-1.102.289-1.102.815l.003 8.741Zm8.848 1.051-.761-.053c-.971-.08-1.313-.658-1.05-1.318l1.523-3.807c.131-.34.288-.444.918-.444h5.462l1.601 4.438c.264.733-.106 1.05-1.102 1.127l-.735.054c-.135 0-.187.078-.187.21v.498l.024.053s2.574-.053 3.492-.053c1.025 0 3.046.053 3.046.053l.079-.053v-.497c0-.133-.131-.211-.263-.211l-.288-.025c-1.05-.105-1.576-.498-1.945-1.523L112.123.91c-.209-.525-.341-.788-.707-.788-.395 0-.606.263-.894.946l-5.826 13.65c-.735 1.68-1.39 1.891-2.546 1.97-.132 0-.211.079-.211.209v.499l.054.053s1.68-.053 2.363-.053c.63 0 3.492.053 3.492.053l.052-.053v-.499a.207.207 0 0 0-.21-.209Zm3.124-13.73 2.546 7.007v.001h-4.568c-.578 0-.761-.077-.656-.341l2.625-6.667h.053Z" clip-rule="evenodd"/></svg>
